!!!PDT:	1923
!!!LANG: Non-Tone
!!!LING_GROUP: Siouan
!!!REG: Dakotas
!!!COM: Anon.
!!!OTL: Song of the Deer
!!!ODT: <1918//
!!!MPN: Bear-on-the-Flat
!!!MLC: Fort Berthold Reservation, North Dakota, United States of America
!! Song was recorded during either the summer of 1912, 1915, or 1918.
!!!AGN: monody
!!!SOCIAL_FUNCTION: Songs Connected With Legends and Folk-Tales
!!!AMT: irregular
!!!RWG: Transcribed pitches, durations, and meters are only approximate.
!! Drum not recorded.
**kern
*ICvox
*Ifemale
*clefF4
*k[f#c#g#d#]
*M3/4
*MM66
=1-
8c#
8c#
4B
8G#
8G#
*M2/4
=2
4B
4B
*M3/4
=3
8B
8G#
4B
8G#
8G#
*M2/4
=4
4E
4C#
=5
4BB
8GG#
8GG#
=6
4BB
4BB
*M3/4
=7
8BB
8GG#
4BB
8GG#
8GG#
*M2/4
=8
4GG#
4GG#
*M3/4
=9
2.GG#
*M2/4
=10
8B
8B
8c#
8c#
=11
8B
8B
8G#
8G#
=12
4B
4B
=13
8B
8G#
8B
8B
=14
4G#
8E
8E
*M3/4
=15
8C#
8C#
4BB
8GG#
8GG#
*M2/4
=16
4BB
4BB
*M3/4
=17
8BB
8GG#
4BB
8GG#
8GG#
=18
2.GG#
==
*-
!!!CNT: Mandan
!!!TXO: Mandan
!!!OCY: United States
!!!OCL: Frances Densmore
!!!YOR: Frances Densmore, "Mandan and Hidatsa Music",
!!!YOR: Bulletin 80, page 88, No. 33
!!!PPR: Smithsonian Institution, Bureau of American Ethnology
!!!PPR: Government Printing Office
!!!PDT: 1923
!!!PPP: Washington, DC, United States of America
!!!YEC: Electronic Copyright 2000 David Huron
!!!YER: August 2000
!!!YEN: United States of America
!!!ENC: David Huron
!!!RDT: August 16, 2000
!!!EEV: Release 1.0
!!!AIN: tom, vox
